files/resources/svgs/general/o-lifebuoy.svg

<svg width="24" height="24" viewBox="0 0 24 24" fill="none" xmlns="http://www.w3.org/2000/svg">
<path d="M16.7124 4.3299C17.2999 4.69153 17.8548 5.12691 18.364 5.63604C18.8731 6.14517 19.3085 6.70012 19.6701 7.28763M16.7124 4.3299L13.2636 8.46838M16.7124 4.3299C13.8316 2.5567 10.1684 2.5567 7.28763 4.3299M19.6701 7.28763L15.5316 10.7364M19.6701 7.28763C21.4433 10.1684 21.4433 13.8316 19.6701 16.7124M15.5316 10.7364C15.3507 10.2297 15.0574 9.75408 14.6517 9.34835C14.2459 8.94262 13.7703 8.6493 13.2636 8.46838M15.5316 10.7364C15.8228 11.5519 15.8228 12.4481 15.5316 13.2636M13.2636 8.46838C12.4481 8.17721 11.5519 8.17721 10.7364 8.46838M15.5316 13.2636C15.3507 13.7703 15.0574 14.2459 14.6517 14.6517C14.2459 15.0574 13.7703 15.3507 13.2636 15.5316M15.5316 13.2636L19.6701 16.7124M19.6701 16.7124C19.3085 17.2999 18.8731 17.8548 18.364 18.364C17.8548 18.8731 17.2999 19.3085 16.7124 19.6701M16.7124 19.6701L13.2636 15.5316M16.7124 19.6701C13.8316 21.4433 10.1684 21.4433 7.28763 19.6701M13.2636 15.5316C12.4481 15.8228 11.5519 15.8228 10.7364 15.5316M10.7364 15.5316C10.2297 15.3507 9.75408 15.0574 9.34835 14.6517C8.94262 14.2459 8.6493 13.7703 8.46838 13.2636M10.7364 15.5316L7.28763 19.6701M7.28763 19.6701C6.70012 19.3085 6.14517 18.8731 5.63604 18.364C5.12691 17.8548 4.69153 17.2999 4.3299 16.7124M4.3299 16.7124L8.46838 13.2636M4.3299 16.7124C2.5567 13.8316 2.5567 10.1684 4.3299 7.28763M8.46838 13.2636C8.17721 12.4481 8.17721 11.5519 8.46838 10.7364M8.46838 10.7364C8.6493 10.2297 8.94262 9.75408 9.34835 9.34835C9.75408 8.94262 10.2297 8.6493 10.7364 8.46838M8.46838 10.7364L4.3299 7.28763M10.7364 8.46838L7.28763 4.3299M7.28763 4.3299C6.70012 4.69153 6.14517 5.12691 5.63604 5.63604C5.12691 6.14517 4.69153 6.70013 4.3299 7.28763" stroke="#0F172A" stroke-width="1.5" stroke-linecap="round" stroke-linejoin="round"/>
</svg>

<svg xmlns="http://www.w3.org/2000/svg" fill="none" viewBox="0 0 24 24" stroke-width="1.5" stroke="currentColor" aria-hidden="true">
  <path stroke-linecap="round" stroke-linejoin="round" d="M16.712 4.33a9.027 9.027 0 011.652 1.306c.51.51.944 1.064 1.306 1.652M16.712 4.33l-3.448 4.138m3.448-4.138a9.014 9.014 0 00-9.424 0M19.67 7.288l-4.138 3.448m4.138-3.448a9.014 9.014 0 010 9.424m-4.138-5.976a3.736 3.736 0 00-.88-1.388 3.737 3.737 0 00-1.388-.88m2.268 2.268a3.765 3.765 0 010 2.528m-2.268-4.796a3.765 3.765 0 00-2.528 0m4.796 4.796c-.181.506-.475.982-.88 1.388a3.736 3.736 0 01-1.388.88m2.268-2.268l4.138 3.448m0 0a9.027 9.027 0 01-1.306 1.652c-.51.51-1.064.944-1.652 1.306m0 0l-3.448-4.138m3.448 4.138a9.014 9.014 0 01-9.424 0m5.976-4.138a3.765 3.765 0 01-2.528 0m0 0a3.736 3.736 0 01-1.388-.88 3.737 3.737 0 01-.88-1.388m2.268 2.268L7.288 19.67m0 0a9.024 9.024 0 01-1.652-1.306 9.027 9.027 0 01-1.306-1.652m0 0l4.138-3.448M4.33 16.712a9.014 9.014 0 010-9.424m4.138 5.976a3.765 3.765 0 010-2.528m0 0c.181-.506.475-.982.88-1.388a3.736 3.736 0 011.388-.88m-2.268 2.268L4.33 7.288m6.406 1.18L7.288 4.33m0 0a9.024 9.024 0 00-1.652 1.306A9.025 9.025 0 004.33 7.288"/>
</svg>
